mi/stadium.svg

<svg version="1.1" xmlns="http://www.w3.org/2000/svg" viewBox="0 0 15 15" height="1em" width="1em">
  <path d="M7,1v2v1.5v0.5098C4.1695,5.1037,2.0021,5.9665,2,7v4.5c0,1.1046,2.4624,2,5.5,2s5.5-0.8954,5.5-2V7	c-0.0021-1.0335-2.1695-1.8963-5-1.9902V4.0625L11,2.75L7,1z M3,8.1465c0.5148,0.2671,1.2014,0.4843,2,0.6328v2.9668	C3.7948,11.477,3,11.0199,3,10.5V8.1465z M12,8.1484V10.5c0,0.5199-0.7948,0.977-2,1.2461V8.7812	C10.7986,8.6328,11.4852,8.4155,12,8.1484z M6,8.9219C6.4877,8.973,6.9925,8.9992,7.5,9C8.0073,8.9999,8.5121,8.9743,9,8.9238	v2.9844C8.5287,11.964,8.0288,12,7.5,12S6.4713,11.964,6,11.9082V8.9219z"/>
</svg>

<svg xmlns="http://www.w3.org/2000/svg" viewBox="0 0 15 15" height="1em" width="1em">
  <path d="M7 1v4.01c-2.83.094-4.998.957-5 1.99v4.5c0 1.105 2.462 2 5.5 2s5.5-.895 5.5-2V7c-.002-1.034-2.17-1.896-5-1.99v-.947l3-1.313L7 1zM3 8.146c.515.268 1.201.485 2 .633v2.967c-1.205-.269-2-.726-2-1.246V8.146zm9 .002V10.5c0 .52-.795.977-2 1.246V8.781c.799-.148 1.485-.366 2-.633zm-6 .774a14.68 14.68 0 0 0 3 .002v2.984c-.471.056-.971.092-1.5.092s-1.029-.036-1.5-.092V8.922z"/>
</svg>
